novelwriter/assets/icons/typicons_light/typ_refresh.svg

<?xml version="1.0" encoding="UTF-8" standalone="no"?>
<svg
   xmlns:dc="http://purl.org/dc/elements/1.1/"
   xmlns:cc="http://creativecommons.org/ns#"
   xmlns:rdf="http://www.w3.org/1999/02/22-rdf-syntax-ns#"
   xmlns:svg="http://www.w3.org/2000/svg"
   xmlns="http://www.w3.org/2000/svg"
   version="1.2"
   width="24"
   height="24"
   viewBox="0 0 24 24"
   id="svg6649">
  <metadata
     id="metadata6655">
    <rdf:RDF>
      <cc:Work
         rdf:about="">
        <dc:format>image/svg+xml</dc:format>
        <dc:type
           rdf:resource="http://purl.org/dc/dcmitype/StillImage" />
        <dc:title></dc:title>
      </cc:Work>
    </rdf:RDF>
  </metadata>
  <defs
     id="defs6653" />
  <path
     d="M 13.162667,12.25611 H 20 V 5.4213831 C 19.989333,3.9083317 19.105333,3.5443996 18.036,4.6148668 L 16.497333,6.1585791 C 15.144,5.0987766 13.488,4.5188846 11.742667,4.5188846 9.676,4.5188846 7.7306667,5.3240679 6.2706667,6.7864621 4.8053333,8.242191 4,10.189828 4,12.25611 4,14.326391 4.8053333,16.271361 6.268,17.731089 7.7306667,19.193484 9.674667,20 11.742667,20 c 2.066666,0 4.012,-0.806516 5.474666,-2.270244 0.394667,-0.395926 0.744,-0.827845 1.04,-1.286427 C 18.72,15.72213 18.510667,14.763642 17.790667,14.303728 17.072,13.842481 16.113333,14.051775 15.652,14.770308 c -0.177333,0.275948 -0.389333,0.533234 -0.624,0.773189 -0.878667,0.87717 -2.045333,1.359747 -3.285333,1.359747 -1.24,0 -2.406667,-0.481244 -3.285334,-1.359747 -0.8759997,-0.87717 -1.3599997,-2.043619 -1.3599997,-3.286054 0,-1.239769 0.4826667,-2.406219 1.3599997,-3.280722 0.878667,-0.87717 2.045334,-1.36108 3.285334,-1.36108 0.917333,0 1.794666,0.26795 2.545333,0.762525 l -1.930667,1.934306 c -1.070666,1.069134 -0.706666,1.943638 0.805334,1.943638 z"
     id="path6647"
     style="fill:#718c00;fill-opacity:1;stroke-width:1.33321" />
</svg>

<?xml version="1.0" encoding="UTF-8"?>
<svg width="24" height="24" version="1.2" viewBox="0 0 24 24" xmlns="http://www.w3.org/2000/svg">
 <path d="m13.163 12.256h6.8373v-6.8347c-0.010667-1.5131-0.89467-1.877-1.964-0.80652l-1.5387 1.5437c-1.3533-1.0598-3.0093-1.6397-4.7547-1.6397-2.0667 0-4.012 0.80518-5.472 2.2676-1.4653 1.4557-2.2707 3.4034-2.2707 5.4696 0 2.0703 0.80533 4.0153 2.268 5.475 1.4627 1.4624 3.4067 2.2689 5.4747 2.2689 2.0667 0 4.012-0.80652 5.4747-2.2702 0.39467-0.39593 0.744-0.82784 1.04-1.2864 0.46267-0.7212 0.25333-1.6797-0.46667-2.1396-0.71867-0.46125-1.6773-0.25195-2.1387 0.46658-0.17733 0.27595-0.38933 0.53323-0.624 0.77319-0.87867 0.87717-2.0453 1.3597-3.2853 1.3597s-2.4067-0.48124-3.2853-1.3597c-0.876-0.87717-1.36-2.0436-1.36-3.2861 0-1.2398 0.48267-2.4062 1.36-3.2807 0.87867-0.87717 2.0453-1.3611 3.2853-1.3611 0.91733 0 1.7947 0.26795 2.5453 0.76252l-1.9307 1.9343c-1.0707 1.0691-0.70667 1.9436 0.80533 1.9436z" fill="#718c00" stroke-width="1.3332"/>
</svg>
